X:1
T:Kiss The Rain
T:Kiss The Rain
T:Yiruma
T:Easy
C:Yiruma
Z:Arranged by Shigeo Ida
%%score { ( 1 3 ) | ( 2 4 ) }
L:1/8
M:4/4
K:Ab
V:1 treble nm="Piano" snm="Pno."
V:3 treble 
V:2 treble 
V:4 treble 
V:1
 z6[Q:1/4=63]!p! z/ !1!e/a/b/ | bc' c'4- c'/!2!a/b/c'/ | !3!be' e'4- e'/!8va(!!2!e'/f'/g'/ | %3
 g'a' a'2- a'b'{/b'} (3c''b'a'!8va)! |!8va(! g'4 z a'g'e' | e'f' f'4- f'e'/d'/ | %6
 d'e' e'4!8va)! z !3!a/b/ | !5!c'!4!d' d'4 e'd' | c'4 beab | bc' c'4- c'/!8va(!!2!a/b/c'/ | %10
 be' e'4- e'/ !3!e'/!4!f'/g'/ | g'a' a'2- a'b'{/!4!b'} (3!5!c''b'a'!8va)! |!8va(! g'4- g'a'g'e' | %13
 e'f' f'4- f'e'/d'/ | d'e' e'4- e'!3!a/b/ | !>!!5!c' !4!d'2 f a2 g2!8va)! | !5!!2!a4 z!mf! Ace | %17
 !5!!2!f2 e2 AGAf | !5!!3!e4 z z z z | eddc cBBA | Bc c2 z Ace | !5!!2!f4 z ggf | e3 c/d/ e2 dc | %23
 d2 e2 !3!f>g- ga |!>(! c'4 b!8va(!eab!>)! | bc' c'4- c'/a/b/c'/ | %26
 be' e'4- e'/(!3!e'/f'/)g'/!8va)! |!8va(! g'a' a'2- a'b' (3c''b'a' | g'4 z a'g'e' | %29
 e'f' f'4- f'e'/d'/!8va)! |!8va(! d'e' e'4- e'!2!a/b/ | c'd' d'4 e'd' | c'4 beab!8va)! | %33
!8va(! bc' c'4- c'/a/b/c'/ | be'!<(! e'4- e'/e'/f'/g'/!<)! | g'a' a'2- a'b' (3c''b'a'!8va)! | %36
!8va(! g'4 z a'g'e' | e'f' f'4- f'e'/d'/ | d'e' e'4- e'!8va)!a/b/ | c' d'2 f a2 g2 |!mp! a4 z Ace | %41
 !5!f2 e2 AGAf | e4 z z z z | eddc cBBA | Bc c2- cAce | !5!!2!f4 z ggf | e2- ec/d/ e2 dc | %47
 d2 e2!<(! f>g- ga!<)! |!mf! c'4 beab | bc' c'4- c'/!8va(!a/b/c'/ | be' e'4- e'/e'/f'/g'/ | %51
 g'a' a'2- a'b' (3c''b'a'!8va)! |!8va(! g'4 z a'g'e'!8va)! | e'f' f'4- f'/ z/ e/d/ | de e4- ea/b/ | %55
 c' d'2!<(! f"^rit."[Q:1/4=58] a2 g2!<)! || %56
[K:A][Q:1/4=40] !tenuto!a2 z2[Q:1/4=55] z!>(! e!tenuto!a!tenuto!b!>)! | %57
[Q:1/4=63][Q:1/4=63]"^a Tempo" bc' c'4- c'/a/b/c'/ | be' e'4- e'/!8va(! !3!e'/!4!f'/!5!g'/ | %59
 !>!!5!g'!5!a' !5!a'2- a'!5!b'{/!4!b'} (3!5!c''b'a'!8va)! | !2!!1!g'4 z age | !4!!1!ef f4 Ae/d/ | %62
 de e2 A2- A/E/A/B/ | c d2 !2!F[Q:1/4=55] A2 G2 | !5!!2!A6[Q:1/4=50]"^rit." bc' | %65
 !4!c' d'2 !2!f a2 g2 |[M:3/4]!>(! a6!>)! |[M:4/4][Q:1/4=30] [CA]8 |] %68
V:2
 z6 z2 | A,8 | C8 | F8 | E8 | D8 | C8 | B,8 | E,8 |[K:bass] A,,8 | C,8 | F,,8 | E,,8 | D,8 | C,8 | %15
 B,,8 | z z[I:staff -1] !2!!1!Bd !3!c2[I:staff +1] z2 | D,8 | C,8 | B,,8 | A,,8 | =D,8 | C,8 | %23
 B,,8 | E,,8 | A,,8 | C,8 | F,,8 | E,,8 | D,8 | C,8 | B,,8 | E,,8 | A,,8 | C,8 | F,,8 | E,,8 | %37
 D,,8 | C,8 | B,,8 | A,8 | D,8 | C,8 | B,,8 | A,,8 | =D,8 | C,8 | B,,8 | E,,8 | A,,8 | C,8 | F,,8 | %52
 E,,8 | D,8 | C,8 | B,,8 ||[K:A] E,,8 |[K:treble] !5!A,8 | z z2 z z z3 | F,8 |[K:bass] E,8 | D,8 | %62
 C,8 | B,,4 E,4 | A,,8 |[K:bass] D,,8 |[M:3/4][K:bass] A,,6 |[M:4/4]!pp! A,,8 |] %68
V:3
 x8 | x8 | x13/2!8va(! x3/2 | x8!8va)! |!8va(! x8 | x8 | x6!8va)! x2 | x8 | x8 | x13/2!8va(! x3/2 | %10
 x8 | x6 z2!8va)! |!8va(! x8 | x8 | x8 | x8!8va)! | x8 | x8 | z z AG AGAe | x8 | x8 | x8 | x8 | %23
 x8 | x5!8va(! x3 | x8 | x8!8va)! |!8va(! x8 | x8 | x8!8va)! |!8va(! x8 | x8 | x8!8va)! | %33
!8va(! x8 | x8 | x8!8va)! |!8va(! x8 | x8 | x7!8va)! x | x8 | x8 | x8 | z z AG AGAe | x8 | x8 | %45
 x8 | x8 | x8 | x8 | x13/2!8va(! x3/2 | x8 | x8!8va)! |!8va(! x8!8va)! | x8 | x8 | x8 ||[K:A] x8 | %57
 x8 | x13/2!8va(! x3/2 | x8!8va)! | x8 | x8 | x8 | x8 | x8 | x8 |[M:3/4] x6 |[M:4/4] x8 |] %68
V:4
 x8 | x8 | x8 | x8 | x8 | x8 | x8 | x8 | x8 |[K:bass] x8 | x8 | x8 | x8 | x8 | x8 | x8 | A,,6 x2 | %17
 x8 | x8 | x8 | x8 | x8 | x8 | x8 | x8 | x8 | x8 | x8 | x8 | x8 | x8 | x8 | x8 | x8 | x8 | x8 | %36
 x8 | x8 | x8 | x8 | x8 | x8 | x8 | x8 | x8 | x8 | x8 | x8 | x8 | x8 | x8 | x8 | x8 | x8 | x8 | %55
 x8 ||[K:A] x8 |[K:treble] x8 | C8 | x8 |[K:bass] x8 | x8 | x8 | x8 | x8 |[K:bass] x8 | %66
[M:3/4][K:bass] x6 |[M:4/4] x8 |] %68

